dist/svgs/crypto-icons/icons/xdn.svg

<?xml version="1.0" encoding="UTF-8" standalone="yes"?>
<svg xmlns="http://www.w3.org/2000/svg" xmlns:xlink="http://www.w3.org/1999/xlink" width="512px" height="176px" viewBox="0 0 384 132" version="1.1">
  <g id="surface1">
    <path style=" stroke:none;fill-rule:evenodd;fill:rgb(0%,0%,0%);fill-opacity:1;" d="M 46.800781 48.800781 L 80.800781 48.800781 L 80.800781 82.800781 L 46.800781 82.800781 Z M 254.800781 40.398438 C 252.132812 32.667969 247.933594 25.800781 242.199219 19.800781 C 236.46875 13.800781 229.734375 9.332031 222 6.398438 C 217.46875 4.53125 212.867188 3.199219 208.199219 2.398438 C 203.53125 1.601562 198.800781 1.199219 194 1.199219 L 145.199219 1.199219 L 145.199219 131.199219 L 194 131.199219 C 198.53125 131.199219 203 130.867188 207.398438 130.199219 C 211.800781 129.53125 216 128.398438 220 126.800781 C 224 125.199219 227.734375 123.265625 231.199219 121 C 234.660156 118.738281 237.878906 116.125 240.800781 113.199219 C 243.46875 110.53125 245.933594 107.46875 248.199219 104 C 250.46875 100.53125 252.398438 96.800781 254 92.800781 C 255.601562 88.800781 256.734375 84.53125 257.398438 80 C 258.066406 75.46875 258.398438 70.800781 258.398438 66 C 258.933594 61.46875 258.867188 57.132812 258.199219 53 C 257.53125 48.867188 256.398438 44.667969 254.800781 40.398438 Z M 226.398438 80.800781 C 225.867188 82.933594 225 85.066406 223.800781 87.199219 C 222.601562 89.332031 221.332031 91.199219 220 92.800781 C 218.398438 94.398438 216.800781 95.933594 215.199219 97.398438 C 213.601562 98.867188 211.601562 100.132812 209.199219 101.199219 C 207.066406 102.265625 204.734375 103.066406 202.199219 103.601562 C 199.667969 104.132812 197.066406 104.398438 194.398438 104.398438 L 176 104.398438 L 176 26.800781 L 194.398438 26.800781 C 197.066406 26.800781 199.601562 27 202 27.398438 C 204.398438 27.800781 206.800781 28.53125 209.199219 29.601562 C 211.601562 30.398438 213.601562 31.46875 215.199219 32.800781 C 216.800781 34.132812 218.398438 35.601562 220 37.199219 C 221.601562 39.066406 222.933594 41 224 43 C 225.066406 45 225.867188 47.066406 226.398438 49.199219 C 227.46875 51.867188 228.199219 54.53125 228.601562 57.199219 C 229 59.867188 229.199219 62.53125 229.199219 65.199219 C 228.933594 68.132812 228.601562 70.867188 228.199219 73.398438 C 227.800781 75.933594 227.199219 78.398438 226.398438 80.800781 Z M 93.601562 2 L 127.199219 2 L 127.199219 36 L 93.601562 36 Z M 93.601562 48.800781 L 127.199219 48.800781 L 127.199219 82.800781 L 93.601562 82.800781 Z M 93.601562 95.601562 L 127.199219 95.601562 L 127.199219 129.199219 L 93.601562 129.199219 Z M 46.800781 2 L 80.800781 2 L 80.800781 36 L 46.800781 36 Z M 0 2 L 38.398438 2 L 38.398438 36 L 0 36 Z M 384 132 L 373.601562 132 L 284.800781 14.800781 L 285.601562 132 L 275.199219 132 L 275.199219 0 L 285.601562 0 L 374.398438 117.199219 L 374.398438 0.800781 L 384 0.800781 Z M 384 132 "/>
  </g>
</svg>

<svg xmlns="http://www.w3.org/2000/svg" viewBox="0 0 384 132"><path fill-rule="evenodd" d="M46.8 48.8h34v34h-34zm208-8.402c-2.667-7.73-6.866-14.597-12.6-20.597-5.731-6-12.466-10.469-20.2-13.403-4.531-1.867-9.133-3.199-13.8-4A84.208 84.208 0 00194 1.2h-48.8v130H194c4.531 0 9-.332 13.398-1 4.403-.668 8.602-1.8 12.602-3.398 4-1.602 7.734-3.535 11.2-5.801a59.804 59.804 0 009.6-7.8c2.669-2.669 5.134-5.731 7.4-9.2 2.269-3.469 4.198-7.2 5.8-11.2 1.602-4 2.734-8.269 3.398-12.8.668-4.531 1-9.2 1-14 .536-4.531.47-8.867-.199-13-.668-4.133-1.8-8.332-3.398-12.602zm-28.402 40.403c-.53 2.133-1.398 4.265-2.597 6.398-1.2 2.133-2.469 4-3.801 5.602a153.552 153.552 0 01-4.8 4.597c-1.598 1.47-3.598 2.735-6 3.801-2.134 1.067-4.466 1.867-7 2.403a37.887 37.887 0 01-7.802.796H176V26.801h18.398c2.668 0 5.204.199 7.602.597 2.398.403 4.8 1.133 7.2 2.204 2.402.796 4.402 1.867 6 3.199 1.6 1.332 3.198 2.8 4.8 4.398 1.602 1.867 2.934 3.801 4 5.801 1.066 2 1.867 4.066 2.398 6.2 1.07 2.667 1.801 5.331 2.204 8 .398 2.667.597 5.331.597 8a123.203 123.203 0 01-1 8.198c-.398 2.536-1 5-1.8 7.403zM93.602 2h33.597v34H93.602zm0 46.8h33.597v34H93.602zm0 46.802h33.597v33.597H93.602zM46.8 2h34v34h-34zM0 2h38.398v34H0zm384 130h-10.398L284.8 14.8l.8 117.2h-10.4V0h10.403l88.796 117.2V.8H384zm0 0"/></svg>
